z_dist/img/icons/crypto/compound-COMP.svg

<svg width="64" height="64" viewBox="0 0 64 64" fill="none" xmlns="http://www.w3.org/2000/svg">
<rect width="64" height="64" rx="4" fill="#070A0E"/>
<path fill-rule="evenodd" clip-rule="evenodd" d="M18.4877 42.73C17.5309 42.1444 16.9453 41.1045 16.9453 39.9844V33.7316C16.9453 32.9892 17.5501 32.3876 18.2925 32.3908C18.5293 32.3908 18.7629 32.4548 18.9677 32.5732L33.0765 40.8004C33.9021 41.2804 34.4109 42.1636 34.4109 43.1204V49.5972C34.4141 50.4869 33.6941 51.21 32.8045 51.21C32.5069 51.21 32.2125 51.1269 31.9597 50.9732L18.4877 42.73ZM39.518 30.8613C40.3436 31.3413 40.8492 32.2277 40.8524 33.1813V46.3269C40.8524 46.7141 40.6444 47.0725 40.3052 47.2613L37.2172 48.9989C37.1788 49.0213 37.1372 49.0373 37.0924 49.0501V41.7509C37.0924 40.8069 36.5964 39.9301 35.7836 39.4437L23.3932 32.0325V23.7925C23.3932 23.0501 23.998 22.4485 24.7404 22.4517C24.9772 22.4517 25.2108 22.5157 25.4156 22.6341L39.518 30.8613ZM45.6951 21.1524C46.5239 21.6324 47.0327 22.5188 47.0327 23.4756V42.6756C47.0295 43.0692 46.8119 43.4308 46.4663 43.6196L43.5383 45.2004V31.834C43.5383 30.89 43.0423 30.0164 42.2359 29.53L29.5703 21.9332V14.1188C29.5703 13.882 29.6343 13.6484 29.7495 13.4436C30.1239 12.8036 30.9463 12.586 31.5863 12.9572L45.6951 21.1524Z" fill="#00D395"/>
</svg>

<svg width="64" height="64" fill="none" xmlns="http://www.w3.org/2000/svg"><rect width="64" height="64" rx="4" fill="#070A0E"/><path fill-rule="evenodd" clip-rule="evenodd" d="M18.488 42.73a3.222 3.222 0 01-1.543-2.746v-6.252c0-.743.605-1.344 1.348-1.341.236 0 .47.064.675.182L33.077 40.8a2.683 2.683 0 011.334 2.32v6.477a1.607 1.607 0 01-1.607 1.613c-.297 0-.592-.083-.844-.237L18.488 42.73zm21.03-11.869a2.694 2.694 0 011.334 2.32v13.146c0 .387-.208.745-.547.934L37.217 49a.538.538 0 01-.125.051v-7.3a2.69 2.69 0 00-1.308-2.306l-12.39-7.412v-8.24a1.34 1.34 0 011.346-1.34c.237 0 .47.064.676.182l14.102 8.227zm6.177-9.709a2.685 2.685 0 011.338 2.324v19.2a1.09 1.09 0 01-.567.944l-2.928 1.58V31.834c0-.944-.496-1.818-1.302-2.304L29.57 21.933V14.12c0-.237.064-.47.18-.675a1.347 1.347 0 011.836-.487l14.11 8.195z" fill="#00D395"/></svg>
